berloni/img/tel.svg

<svg width="40" height="40" viewBox="0 0 40 40" fill="none" xmlns="http://www.w3.org/2000/svg">
<path d="M9.4096 33.5142L12.1264 27.3706C12.669 26.1505 14.1406 25.6121 15.4069 26.1725L18.5017 27.5409C18.6126 27.4086 18.7272 27.271 18.8473 27.1255C19.9548 25.7996 21.4699 23.9833 22.7143 21.1669C23.963 18.344 24.2873 15.9977 24.5253 14.2845C24.5502 14.1031 24.5737 13.9284 24.599 13.7613L22.5227 12.8449L21.5011 12.3923C20.2328 11.8312 19.6427 10.3801 20.1822 9.15825L22.8988 3.01409C23.4388 1.7935 24.9111 1.25489 26.1793 1.81603L27.9135 2.58895L27.8924 2.63601C28.5177 3.00832 29.1058 3.48916 29.623 4.0529C30.1076 4.59253 30.4903 5.13826 30.7925 5.71659C33.2527 10.3399 32.7505 15.6289 29.062 23.9687C23.9631 35.4963 17.0208 37.4589 16.7199 37.54C16.0614 37.7082 15.3999 37.7911 14.6948 37.79C13.9367 37.7874 13.1859 37.6762 12.4905 37.4649L12.4726 37.4996L10.7287 36.7502C9.46243 36.1885 8.87105 34.7373 9.4096 33.5142Z" fill="#EE3425"/>
</svg>

<svg width="40" height="40" fill="none" xmlns="http://www.w3.org/2000/svg"><path d="M9.41 33.514l2.716-6.143c.543-1.22 2.015-1.759 3.28-1.198l3.096 1.368.345-.416c1.108-1.325 2.623-3.142 3.867-5.958 1.249-2.823 1.573-5.17 1.811-6.883.025-.18.049-.356.074-.523l-2.076-.916-1.022-.453c-1.268-.56-1.858-2.012-1.319-3.234L22.9 3.014c.54-1.22 2.012-1.76 3.28-1.198l1.735.773-.022.047a7.738 7.738 0 0 1 1.731 1.417c.485.54.867 1.085 1.17 1.664 2.46 4.623 1.958 9.912-1.731 18.252-5.099 11.527-12.041 13.49-12.342 13.571a8.02 8.02 0 0 1-2.025.25 7.715 7.715 0 0 1-2.204-.325l-.018.035-1.744-.75c-1.267-.562-1.858-2.013-1.32-3.236z" fill="#EE3425"/></svg>
